svgs/sharp-regular/down-to-dotted-line.svg

<svg xmlns="http://www.w3.org/2000/svg" viewBox="0 0 448 512"><!--! Font Awesome Pro 6.4.0 by @fontawesome - https://fontawesome.com License - https://fontawesome.com/license (Commercial License) Copyright 2023 Fonticons, Inc. --><path d="M64 480V416H0v64H64zm96 0V416H96v64h64zm32 0h64V416H192v64zm160 0V416H288v64h64zm32 0h64V416H384v64zM256 160v48h48 28.1L224 316.1 115.9 208H144h48V160 80h64v80zm1.9 190.1L384 224V208 160H352 336 304V112 80 32H256 192 144V80v32 48H112 96 64v48 16L190.1 350.1 224 384l33.9-33.9z"/></svg>

<svg xmlns="http://www.w3.org/2000/svg" viewBox="0 0 448 512"><!--! Font Awesome Pro 6.6.0 by @fontawesome - https://fontawesome.com License - https://fontawesome.com/license (Commercial License) Copyright 2024 Fonticons, Inc. --><path d="M64 480l0-64L0 416l0 64 64 0zm96 0l0-64-64 0 0 64 64 0zm32 0l64 0 0-64-64 0 0 64zm160 0l0-64-64 0 0 64 64 0zm32 0l64 0 0-64-64 0 0 64zM256 160l0 48 48 0 28.1 0L224 316.1 115.9 208l28.1 0 48 0 0-48 0-80 64 0 0 80zm1.9 190.1L384 224l0-16 0-48-32 0-16 0-32 0 0-48 0-32 0-48-48 0-64 0-48 0 0 48 0 32 0 48-32 0-16 0-32 0 0 48 0 16L190.1 350.1 224 384l33.9-33.9z"/></svg>
